papirus/32x32/apps/gramps.svg

<?xml version="1.0" encoding="UTF-8" standalone="no"?>
<svg
   xmlns:dc="http://purl.org/dc/elements/1.1/"
   xmlns:cc="http://creativecommons.org/ns#"
   xmlns:rdf="http://www.w3.org/1999/02/22-rdf-syntax-ns#"
   xmlns:svg="http://www.w3.org/2000/svg"
   xmlns="http://www.w3.org/2000/svg"
   xmlns:sodipodi="http://sodipodi.sourceforge.net/DTD/sodipodi-0.dtd"
   xmlns:inkscape="http://www.inkscape.org/namespaces/inkscape"
   viewBox="0 0 32 32"
   id="svg2"
   version="1.1"
   inkscape:version="0.91 r13725"
   sodipodi:docname="gramps.svg"
   width="32"
   height="32">
  <metadata
     id="metadata73">
    <rdf:RDF>
      <cc:Work
         rdf:about="">
        <dc:format>image/svg+xml</dc:format>
        <dc:type
           rdf:resource="http://purl.org/dc/dcmitype/StillImage" />
        <dc:title></dc:title>
      </cc:Work>
    </rdf:RDF>
  </metadata>
  <sodipodi:namedview
     pagecolor="#ffffff"
     bordercolor="#666666"
     borderopacity="1"
     objecttolerance="10"
     gridtolerance="10"
     guidetolerance="10"
     inkscape:pageopacity="0"
     inkscape:pageshadow="2"
     inkscape:window-width="1600"
     inkscape:window-height="849"
     id="namedview71"
     showgrid="false"
     showguides="false"
     inkscape:zoom="7.54"
     inkscape:cx="21.136791"
     inkscape:cy="13.280833"
     inkscape:window-x="0"
     inkscape:window-y="0"
     inkscape:window-maximized="1"
     inkscape:current-layer="svg2" />
  <defs
     id="defs4" />
  <rect
     x="-30"
     y="-30"
     width="28"
     height="28"
     ry="1.4"
     rx="1.4"
     transform="matrix(0,-1,-1,0,0,0)"
     id="rect4203"
     style="fill:#ac8a78;fill-opacity:1" />
  <path
     style="fill:none;fill-rule:evenodd;stroke:#494949;stroke-width:1;stroke-linecap:butt;stroke-linejoin:miter;stroke-miterlimit:4;stroke-dasharray:none;stroke-opacity:1"
     d="m 10.5,15 0,-5.5 12,0 0,5.5"
     id="path4267"
     inkscape:connector-curvature="0"
     sodipodi:nodetypes="cccc" />
  <path
     style="fill:none;fill-rule:evenodd;stroke:#494949;stroke-width:1;stroke-linecap:butt;stroke-linejoin:miter;stroke-miterlimit:4;stroke-dasharray:none;stroke-opacity:1"
     d="m 13.5,22 0,-6.5 12,0 0,6.5"
     id="path4272"
     inkscape:connector-curvature="0"
     sodipodi:nodetypes="cccc" />
  <path
     sodipodi:nodetypes="cccc"
     inkscape:connector-curvature="0"
     id="path4270"
     d="m 7.5,22 0,-6.5 12,0 0,6.5"
     style="fill:none;fill-rule:evenodd;stroke:#494949;stroke-width:1;stroke-linecap:butt;stroke-linejoin:miter;stroke-miterlimit:4;stroke-dasharray:none;stroke-opacity:1" />
  <g
     style="opacity:0.2;fill:#000000;fill-opacity:1"
     id="g4203"
     transform="translate(0,1)">
    <rect
       style="opacity:1;fill:#000000;fill-opacity:1;stroke:none;stroke-width:2;stroke-linecap:butt;stroke-linejoin:miter;stroke-miterlimit:4;stroke-dasharray:none;stroke-opacity:1"
       id="rect4205"
       width="3"
       height="4"
       x="6"
       y="20" />
    <rect
       y="20"
       x="12"
       height="4"
       width="3"
       id="rect4207"
       style="opacity:1;fill:#000000;fill-opacity:1;stroke:none;stroke-width:2;stroke-linecap:butt;stroke-linejoin:miter;stroke-miterlimit:4;stroke-dasharray:none;stroke-opacity:1" />
    <rect
       y="20"
       x="18"
       height="4"
       width="3"
       id="rect4209"
       style="opacity:1;fill:#000000;fill-opacity:1;stroke:none;stroke-width:2;stroke-linecap:butt;stroke-linejoin:miter;stroke-miterlimit:4;stroke-dasharray:none;stroke-opacity:1" />
    <rect
       y="7"
       x="15"
       height="4"
       width="3"
       id="rect4211"
       style="opacity:1;fill:#000000;fill-opacity:1;stroke:none;stroke-width:2;stroke-linecap:butt;stroke-linejoin:miter;stroke-miterlimit:4;stroke-dasharray:none;stroke-opacity:1" />
    <rect
       style="opacity:1;fill:#000000;fill-opacity:1;stroke:none;stroke-width:2;stroke-linecap:butt;stroke-linejoin:miter;stroke-miterlimit:4;stroke-dasharray:none;stroke-opacity:1"
       id="rect4213"
       width="3"
       height="4"
       x="9"
       y="13" />
    <rect
       style="opacity:1;fill:#000000;fill-opacity:1;stroke:none;stroke-width:2;stroke-linecap:butt;stroke-linejoin:miter;stroke-miterlimit:4;stroke-dasharray:none;stroke-opacity:1"
       id="rect4215"
       width="3"
       height="4"
       x="21"
       y="13" />
    <rect
       style="opacity:1;fill:#000000;fill-opacity:1;stroke:none;stroke-width:2;stroke-linecap:butt;stroke-linejoin:miter;stroke-miterlimit:4;stroke-dasharray:none;stroke-opacity:1"
       id="rect4217"
       width="3"
       height="4"
       x="24"
       y="20" />
  </g>
  <g
     id="g4194"
     style="fill:#ffffff;fill-opacity:1">
    <rect
       y="20"
       x="6"
       height="4"
       width="3"
       id="rect4243"
       style="opacity:1;fill:#ffffff;fill-opacity:1;stroke:none;stroke-width:2;stroke-linecap:butt;stroke-linejoin:miter;stroke-miterlimit:4;stroke-dasharray:none;stroke-opacity:1" />
    <rect
       style="opacity:1;fill:#ffffff;fill-opacity:1;stroke:none;stroke-width:2;stroke-linecap:butt;stroke-linejoin:miter;stroke-miterlimit:4;stroke-dasharray:none;stroke-opacity:1"
       id="rect4245"
       width="3"
       height="4"
       x="12"
       y="20" />
    <rect
       style="opacity:1;fill:#ffffff;fill-opacity:1;stroke:none;stroke-width:2;stroke-linecap:butt;stroke-linejoin:miter;stroke-miterlimit:4;stroke-dasharray:none;stroke-opacity:1"
       id="rect4247"
       width="3"
       height="4"
       x="18"
       y="20" />
    <rect
       style="opacity:1;fill:#ffffff;fill-opacity:1;stroke:none;stroke-width:2;stroke-linecap:butt;stroke-linejoin:miter;stroke-miterlimit:4;stroke-dasharray:none;stroke-opacity:1"
       id="rect4265"
       width="3"
       height="4"
       x="15"
       y="7" />
    <rect
       y="13"
       x="9"
       height="4"
       width="3"
       id="rect4261"
       style="opacity:1;fill:#ffffff;fill-opacity:1;stroke:none;stroke-width:2;stroke-linecap:butt;stroke-linejoin:miter;stroke-miterlimit:4;stroke-dasharray:none;stroke-opacity:1" />
    <rect
       y="13"
       x="21"
       height="4"
       width="3"
       id="rect4263"
       style="opacity:1;fill:#ffffff;fill-opacity:1;stroke:none;stroke-width:2;stroke-linecap:butt;stroke-linejoin:miter;stroke-miterlimit:4;stroke-dasharray:none;stroke-opacity:1" />
    <rect
       y="20"
       x="24"
       height="4"
       width="3"
       id="rect4249"
       style="opacity:1;fill:#ffffff;fill-opacity:1;stroke:none;stroke-width:2;stroke-linecap:butt;stroke-linejoin:miter;stroke-miterlimit:4;stroke-dasharray:none;stroke-opacity:1" />
  </g>
  <path
     style="fill:#ffffff;fill-opacity:1;opacity:0.2"
     d="M 3.4003906 2 C 2.6247906 2 2 2.6247906 2 3.4003906 L 2 4.4003906 C 2 3.6247906 2.6247906 3 3.4003906 3 L 28.599609 3 C 29.375209 3 30 3.6247906 30 4.4003906 L 30 3.4003906 C 30 2.6247906 29.375209 2 28.599609 2 L 3.4003906 2 z "
     id="rect4184" />
  <path
     style="fill:#000000;fill-opacity:1;opacity:0.3"
     d="M 2 27.599609 L 2 28.599609 C 2 29.375209 2.6247906 30 3.4003906 30 L 28.599609 30 C 29.375209 30 30 29.375209 30 28.599609 L 30 27.599609 C 30 28.375209 29.375209 29 28.599609 29 L 3.4003906 29 C 2.6247906 29 2 28.375209 2 27.599609 z "
     id="rect4189" />
</svg>

<?xml version="1.0" encoding="UTF-8" standalone="no"?>
<svg id="svg2" xmlns:rdf="http://www.w3.org/1999/02/22-rdf-syntax-ns#" xmlns="http://www.w3.org/2000/svg" height="32" viewBox="0 0 32 32" width="32" version="1.1" xmlns:cc="http://creativecommons.org/ns#" xmlns:dc="http://purl.org/dc/elements/1.1/">
 <metadata id="metadata73">
  <rdf:RDF>
   <cc:Work rdf:about="">
    <dc:format>image/svg+xml</dc:format>
    <dc:type rdf:resource="http://purl.org/dc/dcmitype/StillImage"/>
    <dc:title/>
   </cc:Work>
  </rdf:RDF>
 </metadata>
 <rect id="rect4203" transform="matrix(0,-1,-1,0,0,0)" rx="1.4" ry="1.4" height="28" width="28" y="-30" x="-30" fill="#ac8a78"/>
 <path id="path4267" d="m10.5 15v-5.5h12v5.5" stroke="#494949" fill="none"/>
 <path id="path4272" d="m13.5 22v-6.5h12v6.5" stroke="#494949" fill="none"/>
 <path id="path4270" d="m7.5 22v-6.5h12v6.5" stroke="#494949" fill="none"/>
 <g id="g4203" opacity=".2" transform="translate(0,1)">
  <rect id="rect4205" opacity="1" height="4" width="3" y="20" x="6"/>
  <rect id="rect4207" opacity="1" height="4" width="3" y="20" x="12"/>
  <rect id="rect4209" opacity="1" height="4" width="3" y="20" x="18"/>
  <rect id="rect4211" opacity="1" height="4" width="3" y="7" x="15"/>
  <rect id="rect4213" opacity="1" height="4" width="3" y="13" x="9"/>
  <rect id="rect4215" opacity="1" height="4" width="3" y="13" x="21"/>
  <rect id="rect4217" opacity="1" height="4" width="3" y="20" x="24"/>
 </g>
 <g id="g4194" fill="#fff">
  <rect id="rect4243" height="4" width="3" y="20" x="6"/>
  <rect id="rect4245" height="4" width="3" y="20" x="12"/>
  <rect id="rect4247" height="4" width="3" y="20" x="18"/>
  <rect id="rect4265" height="4" width="3" y="7" x="15"/>
  <rect id="rect4261" height="4" width="3" y="13" x="9"/>
  <rect id="rect4263" height="4" width="3" y="13" x="21"/>
  <rect id="rect4249" height="4" width="3" y="20" x="24"/>
 </g>
 <path id="rect4184" opacity=".2" d="m3.4004 2c-0.7756 0-1.4004 0.6248-1.4004 1.4004v1c0-0.7756 0.6248-1.4004 1.4004-1.4004h25.2c0.775 0 1.4 0.6248 1.4 1.4004v-1c0-0.7756-0.625-1.4004-1.4-1.4004h-25.2z" fill="#fff"/>
 <path id="rect4189" opacity=".2" d="m2 28.6v1c0 0.775 0.6248 1.4 1.4004 1.4h25.2c0.775 0 1.4-0.625 1.4-1.4v-1c0 0.775-0.625 1.4-1.4 1.4h-25.2c-0.7752 0-1.4-0.625-1.4-1.4z"/>
</svg>
